src/images/Registration/Decor-contacts-mob.svg

<svg width="267" height="312" viewBox="0 0 267 312" fill="none" xmlns="http://www.w3.org/2000/svg">
<path d="M40 20C40 31.0457 31.0457 40 20 40C8.9543 40 0 31.0457 0 20C0 8.9543 8.9543 0 20 0C31.0457 0 40 8.9543 40 20ZM7.73215 20C7.73215 26.7753 13.2247 32.2679 20 32.2679C26.7753 32.2679 32.2679 26.7753 32.2679 20C32.2679 13.2247 26.7753 7.73215 20 7.73215C13.2247 7.73215 7.73215 13.2247 7.73215 20Z" fill="#F3848C" fill-opacity="0.12"/>
<path d="M267 277C267 296.33 251.33 312 232 312C212.67 312 197 296.33 197 277C197 257.67 212.67 242 232 242C251.33 242 267 257.67 267 277ZM210.531 277C210.531 288.857 220.143 298.469 232 298.469C243.857 298.469 253.469 288.857 253.469 277C253.469 265.143 243.857 255.531 232 255.531C220.143 255.531 210.531 265.143 210.531 277Z" fill="#F3848C" fill-opacity="0.12"/>
<path d="M227 98C227 106.284 220.284 113 212 113C203.716 113 197 106.284 197 98C197 89.7157 203.716 83 212 83C220.284 83 227 89.7157 227 98ZM202.799 98C202.799 103.082 206.918 107.201 212 107.201C217.082 107.201 221.201 103.082 221.201 98C221.201 92.9185 217.082 88.7991 212 88.7991C206.918 88.7991 202.799 92.9185 202.799 98Z" fill="#F3848C" fill-opacity="0.12"/>
</svg>

<svg width="267" height="312" fill="none" xmlns="http://www.w3.org/2000/svg"><path d="M40 20c0 11.046-8.954 20-20 20S0 31.046 0 20 8.954 0 20 0s20 8.954 20 20ZM7.732 20c0 6.775 5.493 12.268 12.268 12.268S32.268 26.775 32.268 20 26.775 7.732 20 7.732 7.732 13.225 7.732 20ZM267 277c0 19.33-15.67 35-35 35s-35-15.67-35-35 15.67-35 35-35 35 15.67 35 35Zm-56.469 0c0 11.857 9.612 21.469 21.469 21.469 11.857 0 21.469-9.612 21.469-21.469 0-11.857-9.612-21.469-21.469-21.469-11.857 0-21.469 9.612-21.469 21.469ZM227 98c0 8.284-6.716 15-15 15-8.284 0-15-6.716-15-15 0-8.284 6.716-15 15-15 8.284 0 15 6.716 15 15Zm-24.201 0a9.2 9.2 0 0 0 9.201 9.201A9.2 9.2 0 0 0 221.201 98 9.2 9.2 0 0 0 212 88.8a9.2 9.2 0 0 0-9.201 9.2Z" fill="#F3848C" fill-opacity=".12"/></svg>
